svgs/zoho_crm.svg

<svg width="192" height="192" viewBox="0 0 192 192" fill="none" xmlns="http://www.w3.org/2000/svg"><path d="M78.6269 139.319C56.4457 143.741 35.329 134.608 25.9607 113.804C13.0848 85.2099 33.0539 53.0799 64.8923 51.0849C88.0802 49.5709 103.107 68.6119 117.865 83.3819C124.891 90.4129 135.149 99.8499 124.657 109.29C109.783 120.271 95.0834 90.9859 84.5126 84.4939C79.2447 79.9139 70.2902 78.3019 65.6171 84.5729C57.6232 95.2969 70.4591 104.967 78.6259 112.823C86.7157 120.409 92.8133 128.021 101.714 133.901C111.94 140.773 124.989 142.526 139.447 138.25C160.215 131.967 172.158 110.731 169.676 90.2509C166.379 63.0539 138.461 45.4149 112.96 52.9589" stroke="black" stroke-width="12" stroke-linecap="round" stroke-linejoin="round"/></svg>

<svg xmlns="http://www.w3.org/2000/svg" width="192" height="192" fill="none" viewBox="0 0 192 192"><path stroke="#000" stroke-linecap="round" stroke-linejoin="round" stroke-width="12" d="M78.627 139.319c-22.181 4.422-43.298-4.711-52.666-25.515-12.876-28.594 7.093-60.724 38.931-62.72 23.188-1.513 38.215 17.528 52.973 32.298 7.026 7.03 17.284 16.468 6.792 25.908-14.874 10.981-29.574-18.304-40.144-24.796-5.268-4.58-14.223-6.192-18.896.079-7.994 10.724 4.842 20.394 13.009 28.25 8.09 7.586 14.187 15.198 23.088 21.078 10.226 6.872 23.275 8.625 37.733 4.349 20.768-6.283 32.711-27.519 30.229-48-3.297-27.196-31.215-44.835-56.716-37.291"/></svg>
